!!!COM: julia-howe
!!!OTL: battle-hymm-of-the-republic
!!!RNB: hooktheoryid: _QLgnvWZg-V
**kern	**text
*clefG2	*
*k[b-e-]	*
*M4/4	*
=1	=1
2.r	.
8.f	.
16f	.
=2	=2
8.f	Bb
16f	.
8.f	.
16e-	.
8.d	.
16f	.
8.b-	.
16cc	.
=3	=3
8.dd	Bb
16dd	.
8.dd	.
16cc	.
4b-	.
8.b-	.
16a	.
=4	=4
8.g	Eb
16g	.
8.g	.
16a	.
8.b-	.
16a	.
8.b-	.
16g	.
=5	=5
8.f	Bb
16g	.
8.f	.
16d	.
4f	.
8.f	.
16f	.
=6	=6
8.f	Bb
16f	.
8.f	.
16e-	.
8.d	.
16f	.
8.b-	.
16cc	.
=7	=7
8.dd	Bb
16dd	.
8.dd	.
16cc	.
4b-	.
4b-	.
=8	=8
4cc	Cm/Eb
4cc	Cm
4b-	Bb/F
4a	F
=9	=9
2b-	Bb
2r	.
*-	*-